static/assets/img/icons/theme/files/upload.svg

<svg height="24" viewBox="0 0 24 24" width="24" xmlns="http://www.w3.org/2000/svg"><g fill="none" fill-rule="evenodd"><path d="m0 0h24v24h-24z" opacity="0"/><g fill="#000"><path d="m2 13c0-.5.5-1 1-1s1 .5 1 1v5c0 1.1045695.8954305 2 2 2h12c1.1045695 0 2-.8954305 2-2v-5c0-.5522847.4477153-1 1-1s1 .4477153 1 1v5c0 2.209139-1.790861 4-4 4h-12c-2.209139 0-4-1.790861-4-4 0-3 0-4.6666667 0-5z" fill-rule="nonzero" opacity=".3"/><rect height="14" opacity=".3" rx="1" width="2" x="11" y="2"/><path d="m12.0362375 3.37797611-4.32913072 4.32913067c-.39052429.39052429-1.02368927.39052429-1.41421356 0s-.39052429-1.02368927 0-1.41421356l4.99999998-5c.3760817-.37608169.9807432-.39198283 1.3760715-.03618737l5 4.5c.4105101.36945902.4437885 1.00174886.0743294 1.41225888-.369459.41051002-1.0017488.44378844-1.4122588.07432942z" fill-rule="nonzero"/></g></g></svg>

<svg width="24px" height="24px" viewBox="0 0 24 24" version="1.1" xmlns="http://www.w3.org/2000/svg" xmlns:xlink="http://www.w3.org/1999/xlink">
    <title>Icon For Upload</title>
    <g stroke="none" stroke-width="1" fill="none" fill-rule="evenodd">
        <rect opacity="0" x="0" y="0" width="24" height="24"></rect>
        <path d="M2,13 C2,12.5 2.5,12 3,12 C3.5,12 4,12.5 4,13 C4,13.3333333 4,15 4,18 C4,19.1045695 4.8954305,20 6,20 L18,20 C19.1045695,20 20,19.1045695 20,18 L20,13 C20,12.4477153 20.4477153,12 21,12 C21.5522847,12 22,12.4477153 22,13 L22,18 C22,20.209139 20.209139,22 18,22 L6,22 C3.790861,22 2,20.209139 2,18 C2,15 2,13.3333333 2,13 Z" fill="#000000" fill-rule="nonzero" opacity="0.3"></path>
        <rect fill="#000000" opacity="0.3" x="11" y="2" width="2" height="14" rx="1"></rect>
        <path d="M12.0362375,3.37797611 L7.70710678,7.70710678 C7.31658249,8.09763107 6.68341751,8.09763107 6.29289322,7.70710678 C5.90236893,7.31658249 5.90236893,6.68341751 6.29289322,6.29289322 L11.2928932,1.29289322 C11.6689749,0.916811528 12.2736364,0.900910387 12.6689647,1.25670585 L17.6689647,5.75670585 C18.0794748,6.12616487 18.1127532,6.75845471 17.7432941,7.16896473 C17.3738351,7.57947475 16.7415453,7.61275317 16.3310353,7.24329415 L12.0362375,3.37797611 Z" fill="#000000" fill-rule="nonzero"></path>
    </g>
</svg>
